!!!SOCIAL_FUNCTION:	flower dance songs
!!!PDT:	1957
!!!OTL: No_26_Opening_Song_of_Flower_Dance.krn
!!!LING_GROUP: Keresan
!!!LANG: Tone
!!!REG: Southwest
**kern	**kern
*staff2	*staff1
=1-	=1-
*clefF4	*clefG2
*k[f#c#g#d#a#]	*k[f#c#g#d#a#]
*M2/4	*M2/4
4GG#/	4f#/
4r	4f#/
=2	=2
4GG#/	4f#/
4r	4f#/
=3	=3
4GG#/	4f#/
4r	4f#/
=4	=4
4GG#/	4f#/
4r	4f#/
=5	=5
4GG#/	8f#/L
.	[8g#/J
4r	8g#/L]
.	8d#/J
=6	=6
4GG#/	4f#/
4r	4d#/
=7	=7
*M3/4	*M3/4
4GG#/	8f#/L
.	[8d#/J
4r	8d#/L]
.	8c#/J
4GG#/	4B/
=8	=8
4r	8d#/L
.	8c#/J
4GG#/	8d#/L
.	8B/J
4r	8B/L
.	8G#/J
=9	=9
*M2/4	*M2/4
4GG#/	4F#/
4GG#/	4F#/
=10	=10
4GG#/	4F#/
4GG#/	8F#/
.	8r
=11	=11
4GG#/	8d#/L
.	[8f#/J
4r	8f#/L]
.	8d#/J
=12	=12
*M3/4	*M3/4
4GG#/	4f#/
4r	8f#/L
.	8c#/J
4GG#/	4B/
=13	=13
4r	8d#/L
.	8c#/J
4GG#/	8d#/L
.	8B/J
4r	8B/L
.	8G#/J
=14	=14
*M2/4	*M2/4
4GG#/	4F#/
4GG#/	4F#/
=15	=15
4GG#/	4F#/
4GG#/	8F#/
.	8r
==	==
*-	*-
